X: 33692
T: Randalf's Leap
R: waltz
M: 3/4
K: Dmajor
"Bm"B2 d2 ed|f3 g fd|"A"ed c2 de|"G"dc B2 AB|
"Bm"F2 B3 c|dc B2 AB|"G"GA B3 d|"A"cd ec BA|
"Bm"B2 Bd ed|f3 g fd|"A/C#"a3 g fe|"D"ef B3 c|
"E7(sus4)"B2 AB F2|B2 AB AF|"Em"E2 "D/F#"F2 A2|1 "G"B3 A dc:|2 "G"B6||
|:"Bm"B2 AB F2|B2 AB F2|"A"c2 Bc BA|"D"F3 A (3Bcd|
"Em"e3 d eg|fd B3 A|"Gmaj7"F2 B2 Bc|"A"A3 F dc|
"Gmaj7"B2 AB F2|B2 AB F2|"A"c2 Bc BA|"D"FA (3Bcd ef|
"Em7(sus4)"a3 g fe|ef B3 A|(3Bcd ec BA|B6:|

